%
(Header)
(Generated by gcodetools from Inkscape.)
(Using default header. To add your own header create file "header" in the output dir.)
M3
(Header end.)
G21 (All units in mm)

(Start cutting path id: path7313-6)
(Change tool to Default tool)

M300S00
G00 X26.924711 Y-120.145383

M300S25
G01 X7.764272 Y-118.226997 Z0.000000 F2000.00000
G01 X0.145867 Y-135.912086 Z0.000000
G01 X-7.772984 Y-118.359470 Z0.000000
G01 X-26.897927 Y-120.604282 Z0.000000
G01 X-15.656337 Y-104.970049 Z0.000000
G01 X-27.162873 Y-89.529767 Z0.000000
G01 X-8.002434 Y-91.448152 Z0.000000
G01 X-0.384028 Y-73.763061 Z0.000000
G01 X7.534823 Y-91.315680 Z0.000000
G01 X26.659764 Y-89.070868 Z0.000000
G01 X15.418175 Y-104.705101 Z0.000000
G01 X26.924711 Y-120.145383 Z0.000000
M300S00

(End cutting path id: path7313-6)


(Start cutting path id: path7313-3)
(Change tool to Default tool)

M300S00
G00 X26.924711 Y-50.358547

M300S25
G01 X7.764272 Y-48.440164 Z0.000000 F2000.00000
G01 X0.145867 Y-66.125255 Z0.000000
G01 X-7.772984 Y-48.572636 Z0.000000
G01 X-26.897927 Y-50.817449 Z0.000000
G01 X-15.656337 Y-35.183212 Z0.000000
G01 X-27.162873 Y-19.742933 Z0.000000
G01 X-8.002434 Y-21.661319 Z0.000000
G01 X-0.384028 Y-3.976225 Z0.000000
G01 X7.534823 Y-21.528844 Z0.000000
G01 X26.659764 Y-19.284031 Z0.000000
G01 X15.418175 Y-34.918268 Z0.000000
G01 X26.924711 Y-50.358547 Z0.000000
M300S00

(End cutting path id: path7313-3)


(Start cutting path id: path7313-7)
(Change tool to Default tool)

M300S00
G00 X26.924711 Y19.428287

M300S25
G01 X7.764272 Y21.346672 Z0.000000 F2000.00000
G01 X0.145867 Y3.661581 Z0.000000
G01 X-7.772984 Y21.214200 Z0.000000
G01 X-26.897927 Y18.969388 Z0.000000
G01 X-15.656337 Y34.603621 Z0.000000
G01 X-27.162873 Y50.043900 Z0.000000
G01 X-8.002434 Y48.125517 Z0.000000
G01 X-0.384028 Y65.810609 Z0.000000
G01 X7.534823 Y48.257990 Z0.000000
G01 X26.659764 Y50.502802 Z0.000000
G01 X15.418175 Y34.868569 Z0.000000
G01 X26.924711 Y19.428287 Z0.000000
M300S00

(End cutting path id: path7313-7)


(Start cutting path id: path7313)
(Change tool to Default tool)

M300S00
G00 X26.924711 Y89.215106

M300S25
G01 X7.764272 Y91.133489 Z0.000000 F2000.00000
G01 X0.145867 Y73.448397 Z0.000000
G01 X-7.772984 Y91.001017 Z0.000000
G01 X-26.897927 Y88.756204 Z0.000000
G01 X-15.656337 Y104.390438 Z0.000000
G01 X-27.162873 Y119.830720 Z0.000000
G01 X-8.002434 Y117.912334 Z0.000000
G01 X-0.384028 Y135.597426 Z0.000000
G01 X7.534823 Y118.044806 Z0.000000
G01 X26.659764 Y120.289619 Z0.000000
G01 X15.418175 Y104.655385 Z0.000000
G01 X26.924711 Y89.215106 Z0.000000
M300S00

(End cutting path id: path7313)


(Footer)
M5
G00 X0.0000 Y0.0000
M2
(Using default footer. To add your own footer create file "footer" in the output dir.)
(end)
%