%
(Header)
(Generated by gcodetools from Inkscape.)
(Using default header. To add your own header create file "header" in the output dir.)
M3
(Header end.)
G21 (All units in mm)

(Start cutting path id: path32357-9)
(Change tool to Default tool)

M300S00
G00 X10.937200 Y-107.840074

M300S25
G03 X10.469492 Y-108.024084 Z0.000000 I0.000000 J-0.686406 F2000.00000
G03 X10.276292 Y-108.467905 Z0.000000 I0.413178 J-0.443822
G03 X10.469435 Y-108.912062 Z0.000000 I0.607269 J-0.000000
G03 X10.937200 Y-109.096301 Z0.000000 I0.467765 J0.501685
G03 X11.404628 Y-108.912003 Z0.000000 I-0.000000 J0.684908
G03 X11.597558 Y-108.467905 Z0.000000 I-0.414661 J0.444098
G03 X11.404572 Y-108.024143 Z0.000000 I-0.606699 J-0.000000
G03 X10.937200 Y-107.840074 Z0.000000 I-0.467371 J-0.501319
G01 X10.937200 Y-107.840074 Z0.000000
M300S00

(End cutting path id: path32357-9)





(Start cutting path id: path32357)
(Change tool to Default tool)

M300S00
G00 X10.937200 Y-103.616110

M300S25
G03 X10.469435 Y-103.800349 Z0.000000 I-0.000000 J-0.685924 F2000.00000
G03 X10.276292 Y-104.244506 Z0.000000 I0.414126 J-0.444157
G03 X10.469494 Y-104.688329 Z0.000000 I0.606386 J0.000005
G03 X10.937200 Y-104.872338 Z0.000000 I0.467706 J0.502393
G03 X11.404570 Y-104.688268 Z0.000000 I-0.000000 J0.685384
G03 X11.597558 Y-104.244506 Z0.000000 I-0.413719 J0.443767
G03 X11.404628 Y-103.800408 Z0.000000 I-0.607591 J-0.000000
G03 X10.937200 Y-103.616110 Z0.000000 I-0.467428 J-0.500610
G01 X10.937200 Y-103.616110 Z0.000000
M300S00

(End cutting path id: path32357)





(Start cutting path id: path32184)
(Change tool to Default tool)

M300S00
G00 X-14.182320 Y115.767462

M300S25
G02 X-3.233239 Y121.569451 Z0.000000 I22.541597 J-29.306682 F2000.00000
G02 X8.843852 Y124.203293 Z0.000000 I18.631811 J-56.427622
G02 X17.228312 Y124.445132 Z0.000000 I12.134064 J-275.218873
G02 X25.476607 Y122.664665 Z0.000000 I0.256042 J-18.809849
G02 X27.355068 Y117.965276 Z0.000000 I-7.978440 J-5.914305
G02 X24.432039 Y113.694971 Z0.000000 I-3.881814 J-0.478454
G02 X12.353076 Y112.732554 Z0.000000 I-7.480658 J17.606496
G02 X0.764172 Y115.958202 Z0.000000 I50.352949 J203.335669
G03 X-13.732983 Y120.728426 Z0.000000 I-79.711769 J-217.837281
G02 X-27.976729 Y126.113268 Z0.000000 I28.023866 J95.658360
G02 X-28.354684 Y130.007090 Z0.000000 I2.049934 J2.164232
G02 X-24.673516 Y131.286170 Z0.000000 I2.741372 J-1.952910
G02 X-12.403526 Y124.340241 Z0.000000 I-4.667698 J-22.555929
G02 X-4.823045 Y112.567623 Z0.000000 I-29.984552 J-27.634164
G01 X-3.836513 Y110.594557 Z0.000000
M300S00

(End cutting path id: path32184)


(Start cutting path id: path33121)
(Change tool to Default tool)

M300S00
G00 X6.509294 Y96.800147

M300S25
G03 X3.435983 Y105.576022 Z0.000000 I-8.789547 J1.847975 F2000.00000
G03 X-5.806168 Y106.161120 Z0.000000 I-5.025160 J-6.090339
G03 X-9.206894 Y101.328007 Z0.000000 I2.511318 J-5.380023
G03 X-7.532174 Y95.569963 Z0.000000 I8.145333 J-0.753508
G03 X-1.651460 Y91.516314 Z0.000000 I7.376139 J4.408258
G03 X5.031200 Y93.843954 Z0.000000 I1.261122 J7.136102
G03 X5.027849 Y97.653106 Z0.000000 I-1.815929 J1.902980
G03 X1.336391 Y98.524449 Z0.000000 I-2.591975 J-2.725815
G03 X-2.937275 Y95.295357 Z0.000000 I1.503431 J-6.432393
G03 X-3.836513 Y90.048336 Z0.000000 I7.049203 J-3.908663
G03 X-2.954447 Y86.118185 Z0.000000 I6.476717 J-0.610453
G03 X-0.387910 Y83.005737 Z0.000000 I11.306349 J6.708847
M300S00

(End cutting path id: path33121)


(Start cutting path id: path33123)
(Change tool to Default tool)

M300S00
G00 X6.509294 Y65.762727

M300S25
G03 X-10.338599 Y71.328569 Z0.000000 I-126.770464 J-355.453892 F2000.00000
G02 X-26.990196 Y77.339564 Z0.000000 I50.707120 J166.537873
G02 X-29.219647 Y80.461537 Z0.000000 I1.317253 J3.297702
G02 X-26.325123 Y83.005737 Z0.000000 I2.458338 J0.121804
G02 X-19.974976 Y81.319201 Z0.000000 I0.370787 J-11.401968
G02 X-15.073063 Y76.999272 Z0.000000 I-10.081701 J-16.381032
G02 X-8.831897 Y67.453499 Z0.000000 I-29.501514 J-26.101687
G03 X-1.667940 Y58.421255 Z0.000000 I22.297441 J10.328115
G01 X-0.387910 Y57.141222 Z0.000000
M300S00

(End cutting path id: path33123)


(Start cutting path id: path33125)
(Change tool to Default tool)

M300S00
G00 X-0.387910 Y83.005737

M300S25
G03 X1.061980 Y82.238923 Z0.000000 I8.342173 J14.019223 F2000.00000
G02 X4.376460 Y80.651939 Z0.000000 I-74.956166 J-160.803721
G02 X5.722574 Y79.969116 Z0.000000 I-26.570262 J-54.048750
G02 X5.929937 Y79.818304 Z0.000000 I-0.406146 J-0.776403
G01 X5.906485 Y79.777703 Z0.000000
G02 X4.420159 Y80.253512 Z0.000000 I5.539179 J19.862607
G02 X-1.552761 Y82.355911 Z0.000000 I6.319274 J27.488806
G03 X-7.674402 Y82.616443 Z0.000000 I-3.361855 J-6.943058
G03 X-8.880277 Y77.019482 Z0.000000 I3.127763 J-3.602266
G03 X-5.338678 Y72.437791 Z0.000000 I11.703120 J5.386733
G03 X-2.139618 Y69.776113 Z0.000000 I9.921968 J8.671871
G02 X1.336391 Y67.487029 Z0.000000 I-22.616955 J-38.127900
M300S00

(End cutting path id: path33125)


(Start cutting path id: path33127)
(Change tool to Default tool)

M300S00
G00 X-5.560814 Y55.416920

M300S25
G03 X-1.700870 Y50.016084 Z0.000000 I9.925807 J3.014154 F2000.00000
G03 X4.784993 Y48.519714 Z0.000000 I5.023311 J6.968687
G03 X6.466533 Y52.926680 Z0.000000 I-1.664315 J3.159333
G03 X3.307751 Y56.155541 Z0.000000 I-5.218877 J-1.946063
G03 X-2.370670 Y57.375532 Z0.000000 I-4.814384 J-8.583409
G03 X-7.531322 Y54.924510 Z0.000000 I0.720566 J-8.175574
G03 X-8.410503 Y47.015462 Z0.000000 I6.016464 J-4.672189
G03 X-2.812374 Y41.514518 Z0.000000 I10.212273 J4.793706
G01 X-0.387910 Y39.898209 Z0.000000
M300S00

(End cutting path id: path33127)


(Start cutting path id: path33129)
(Change tool to Default tool)

M300S00
G00 X6.509294 Y22.655199

M300S25
G02 X-0.239924 Y24.977177 Z0.000000 I11.203094 J43.533516 F2000.00000
G03 X-7.285115 Y26.103799 Z0.000000 I-5.708127 J-13.103642
G03 X-8.551734 Y21.002326 Z0.000000 I1.961759 J-3.195053
G03 X-5.102741 Y17.176912 Z0.000000 I11.146657 J6.582314
G01 X-0.387910 Y14.033699 Z0.000000
M300S00

(End cutting path id: path33129)


(Start cutting path id: path33131)
(Change tool to Default tool)

M300S00
G00 X-0.387910 Y39.898209

M300S25
G03 X1.061980 Y39.131395 Z0.000000 I8.342113 J14.019122 F2000.00000
G02 X4.376460 Y37.544414 Z0.000000 I-74.955940 J-160.803537
G02 X5.722574 Y36.861592 Z0.000000 I-26.570171 J-54.048658
G02 X5.929937 Y36.710780 Z0.000000 I-0.406145 J-0.776402
G01 X5.906485 Y36.670179 Z0.000000
G02 X4.420159 Y37.145986 Z0.000000 I5.539139 J19.862558
G02 X-1.552761 Y39.248380 Z0.000000 I6.319091 J27.488353
G03 X-7.674402 Y39.508923 Z0.000000 I-3.361868 J-6.943066
G03 X-8.880274 Y33.911952 Z0.000000 I3.127779 J-3.602271
G03 X-5.338678 Y29.330265 Z0.000000 I11.703108 J5.386727
G03 X-2.139618 Y26.668586 Z0.000000 I9.921954 J8.671847
G02 X1.336391 Y24.379497 Z0.000000 I-22.616563 J-38.127242
M300S00

(End cutting path id: path33131)


(Start cutting path id: path33133)
(Change tool to Default tool)

M300S00
G00 X4.784993 Y-8.382224

M300S25
G03 X6.590532 Y-4.087423 Z0.000000 I-2.078681 J3.400805 F2000.00000
G03 X3.350997 Y-0.665591 Z0.000000 I-4.527704 J-1.042101
G03 X-3.053421 Y2.917314 Z0.000000 I-27.140493 J-40.998066
G02 X-9.009416 Y7.136498 Z0.000000 I8.551624 J18.385337
G02 X-8.857957 Y9.900667 Z0.000000 I18.189205 J0.389577
G02 X-7.285115 Y12.309378 Z0.000000 I3.295142 J-0.433791
M300S00

(End cutting path id: path33133)


(Start cutting path id: path33135)
(Change tool to Default tool)

M300S00
G00 X-0.387910 Y14.033699

M300S25
G02 X4.397265 Y10.612397 Z0.000000 I-15.719704 J-27.043254 F2000.00000
G02 X6.509294 Y4.934347 Z0.000000 I-4.143087 J-4.772903
G02 X3.207433 Y1.886150 Z0.000000 I-2.998053 J-0.064871
G03 X-1.270897 Y1.963591 Z0.000000 I-2.697970 J-26.493441
G02 X-5.857675 Y1.995566 Z0.000000 I-1.699986 J85.138437
G03 X-9.009416 Y-1.412323 Z0.000000 I-0.103971 J-3.065211
G03 X-7.994362 Y-6.684577 Z0.000000 I6.996695 J-1.386783
G03 X-4.644667 Y-10.717303 Z0.000000 I18.819762 J12.224679
G01 X-0.387910 Y-13.555132 Z0.000000
M300S00

(End cutting path id: path33135)


(Start cutting path id: path33137)
(Change tool to Default tool)

M300S00
G00 X3.060692 Y-47.569599

M300S25
G03 X14.349820 Y-51.754961 Z0.000000 I54.080282 J128.552414 F2000.00000
G02 X24.920168 Y-57.358984 Z0.000000 I-10.504286 J-32.584202
G02 X27.435703 Y-63.220382 Z0.000000 I-5.975772 J-6.035115
G02 X24.491780 Y-68.753622 Z0.000000 I-6.424900 J-0.131442
G02 X16.607034 Y-69.709633 Z0.000000 I-4.973252 J8.024222
G03 X8.899191 Y-67.958743 Z0.000000 I-13.538367 J-41.757846
G02 X0.676100 Y-65.515922 Z0.000000 I11.853872 J54.964619
G03 X-7.674402 Y-65.201912 Z0.000000 I-4.637341 J-12.131391
G03 X-8.521981 Y-70.114799 Z0.000000 I2.131588 J-2.897301
G03 X-5.102741 Y-73.739501 Z0.000000 I12.839691 J8.686826
G01 X-0.387910 Y-76.882723 Z0.000000
M300S00

(End cutting path id: path33137)


(Start cutting path id: path33139)
(Change tool to Default tool)

M300S00
G00 X15.130800 Y-44.121012

M300S25
G02 X17.636150 Y-40.277368 Z0.000000 I7.077336 J-1.874787 F2000.00000
G02 X22.028005 Y-38.948105 Z0.000000 I3.857316 J-4.824554
G02 X25.871642 Y-41.453443 Z0.000000 I-1.874765 J-7.077307
G02 X27.200908 Y-45.845305 Z0.000000 I-4.824555 J-3.857321
G02 X23.971821 Y-50.118974 Z0.000000 I-6.432415 J1.503441
G02 X18.724792 Y-51.018213 Z0.000000 I-3.908659 J7.049154
G02 X4.755819 Y-47.979678 Z0.000000 I23.984769 J143.893373
G02 X-9.009416 Y-44.121012 Z0.000000 I184.072333 J683.133661
M300S00

(End cutting path id: path33139)


(Start cutting path id: path33141)
(Change tool to Default tool)

M300S00
G00 X6.509294 Y-87.228538

M300S25
G03 X3.435976 Y-78.452660 Z0.000000 I-8.789548 J1.847972 F2000.00000
G03 X-5.806168 Y-77.867565 Z0.000000 I-5.025156 J-6.090344
G03 X-9.206897 Y-82.700672 Z0.000000 I2.511298 J-5.380014
G03 X-7.532174 Y-88.458716 Z0.000000 I8.145329 J-0.753505
G03 X-1.651458 Y-92.512362 Z0.000000 I7.376141 J4.408269
G03 X5.031200 Y-90.184731 Z0.000000 I1.261124 J7.136112
G03 X5.027845 Y-86.375575 Z0.000000 I-1.815936 J1.902980
G03 X1.336391 Y-85.504245 Z0.000000 I-2.591958 J-2.725798
G03 X-2.937276 Y-88.733318 Z0.000000 I1.503382 J-6.432348
G03 X-3.836513 Y-93.980338 Z0.000000 I7.049200 J-3.908661
G03 X-2.954445 Y-97.910501 Z0.000000 I6.476748 J-0.610455
G03 X-0.387910 Y-101.022939 Z0.000000 I11.306184 J6.708738
M300S00

(End cutting path id: path33141)


(Start cutting path id: path33143)
(Change tool to Default tool)

M300S00
G00 X-5.560814 Y-102.747261

M300S25
G03 X-1.700870 Y-108.148087 Z0.000000 I9.925773 J3.014145 F2000.00000
G03 X4.784993 Y-109.644461 Z0.000000 I5.023327 J6.968735
G03 X6.466528 Y-105.237476 Z0.000000 I-1.664340 J3.159344
G03 X3.307751 Y-102.008629 Z0.000000 I-5.218846 J-1.946052
G03 X-2.370672 Y-100.788630 Z0.000000 I-4.814385 J-8.583345
G03 X-7.531322 Y-103.239654 Z0.000000 I0.720571 J-8.175574
G03 X-8.410496 Y-111.148706 Z0.000000 I6.016478 J-4.672186
G03 X-2.812374 Y-116.649640 Z0.000000 I10.212262 J4.793707
G01 X-0.387910 Y-118.265955 Z0.000000
M300S00

(End cutting path id: path33143)


(Start cutting path id: path33145)
(Change tool to Default tool)

M300S00
G00 X-0.387910 Y-118.265955

M300S25
G02 X10.801321 Y-125.450393 Z0.000000 I-169.260168 J-275.915633 F2000.00000
G03 X23.129076 Y-130.336063 Z0.000000 I17.403844 J25.918379
G03 X26.408084 Y-128.379577 Z0.000000 I0.695222 J2.560831
G03 X24.984193 Y-124.916945 Z0.000000 I-3.137548 J0.733869
G03 X13.675746 Y-121.469737 Z0.000000 I-15.511212 J-30.611901
G02 X1.959621 Y-119.990248 Z0.000000 I254.838461 J2065.205382
G02 X-3.287075 Y-119.857784 Z0.000000 I-2.231973 J15.567922
G03 X-8.063690 Y-120.768843 Z0.000000 I-1.252273 J-6.411670
G03 X-8.457298 Y-125.453310 Z0.000000 I2.498215 J-2.568680
G03 X-5.102741 Y-128.917135 Z0.000000 I14.172873 J10.369504
G01 X-0.387910 Y-132.060357 Z0.000000
M300S00

(End cutting path id: path33145)


(Footer)
M5
G00 X0.0000 Y0.0000
M2
(Using default footer. To add your own footer create file "footer" in the output dir.)
(end)
%