%
(Header)
(Generated by gcodetools from Inkscape.)
(Using default header. To add your own header create file "header" in the output dir.)
M3
(Header end.)
G21 (All units in mm)

(Start cutting path id: path7790-2)
(Change tool to Default tool)

M300S00
G00 X26.125650 Y-100.653149

M300S25
G02 X12.031099 Y-87.296939 Z0.000000 I272.618659 J301.804190 F2000.00000
G02 X5.994078 Y-80.642655 Z0.000000 I61.385580 J61.756996
G02 X1.042770 Y-72.396968 Z0.000000 I25.873393 J21.145663
G02 X-2.126638 Y-61.238094 Z0.000000 I44.839610 J18.765142
G02 X-2.477143 Y-58.228871 Z0.000000 I36.350709 J5.759043
G02 X-2.361291 Y-58.106114 Z0.000000 I0.113919 J0.008535
G02 X-2.229857 Y-58.121187 Z0.000000 I-0.010521 J-0.672337
G02 X2.525583 Y-59.161407 Z0.000000 I-194.701912 J-901.483587
G03 X7.273051 Y-60.191685 Z0.000000 I122.535180 J553.182385
G01 X7.315628 Y-60.179440 Z0.000000
G01 X7.323056 Y-60.139242 Z0.000000
G03 X4.535812 Y-54.202015 Z0.000000 I-822.549418 J-382.524807
G02 X1.748416 Y-48.253179 Z0.000000 I683.005587 J323.657565
G02 X1.719868 Y-48.123656 Z0.000000 I0.279609 J0.129535
G02 X1.757100 Y-47.999050 Z0.000000 I0.227125 J0.000000
G02 X5.483195 Y-42.388488 Z0.000000 I509.397687 J-334.259311
G03 X9.219287 Y-36.792141 Z0.000000 I-894.444607 J601.171752
G01 X9.215746 Y-36.759465 Z0.000000
G01 X9.179091 Y-36.746448 Z0.000000
G03 X2.812361 Y-37.320915 Z0.000000 I110.266650 J-1257.636447
G02 X-3.560747 Y-37.901716 Z0.000000 I-180.827767 J1948.959310
G02 X-3.798100 Y-37.912457 Z0.000000 I-0.240601 J2.688724
G02 X-3.985131 Y-37.816799 Z0.000000 I-0.000236 J0.230208
G02 X-7.782004 Y-32.381557 Z0.000000 I186.017575 J133.989300
G03 X-11.539126 Y-26.862073 Z0.000000 I-1174.686911 J-795.572697
G03 X-11.592621 Y-26.811718 Z0.000000 I-0.141702 J-0.096946
G01 X-11.637728 Y-26.827543 Z0.000000
G03 X-13.926204 Y-33.077448 Z0.000000 I564.704652 J-210.317132
G02 X-16.228190 Y-39.348714 Z0.000000 I-497.161139 J178.934201
G02 X-16.299519 Y-39.418824 Z0.000000 I-0.110924 J0.041514
G02 X-16.405136 Y-39.451555 Z0.000000 I-0.464403 J1.311775
G02 X-22.946332 Y-41.192482 Z0.000000 I-1325.427987 J4966.876657
G03 X-29.440574 Y-42.954212 Z0.000000 I158.656772 J-597.705179
G01 X-29.463248 Y-42.998481 Z0.000000
G03 X-29.420829 Y-43.055185 Z0.000000 I0.116905 J0.043237
G03 X-24.347789 Y-46.811029 Z0.000000 I591.291385 J793.356625
G02 X-19.307443 Y-50.584819 Z0.000000 I-217.621261 J-295.911993
G02 X-19.231085 Y-50.710865 Z0.000000 I-0.121987 J-0.160050
G02 X-19.226715 Y-50.868035 Z0.000000 I-0.549085 J-0.093915
G02 X-20.015964 Y-57.577771 Z0.000000 I-1019.331148 J116.500105
G03 X-20.820292 Y-64.288501 Z0.000000 I3057.443313 J-369.859450
G03 X-20.827701 Y-64.413731 Z0.000000 I1.054620 J-0.125230
G01 X-20.773897 Y-64.445349 Z0.000000
G03 X-16.766016 Y-62.151281 Z0.000000 I-96.435290 J173.126551
G02 X-12.692162 Y-59.807851 Z0.000000 I125.263977 J-213.048075
G02 X-12.521594 Y-59.763160 Z0.000000 I0.170568 J-0.303151
G02 X-12.422830 Y-59.835485 Z0.000000 I0.000000 J-0.103597
G02 X-12.397543 Y-60.154939 Z0.000000 I-0.676797 J-0.214300
G03 X-12.585194 Y-61.636450 Z0.000000 I32.572286 J-4.878318
G03 X-12.853943 Y-64.556684 Z0.000000 I126.307561 J-13.096555
G03 X-13.089735 Y-70.421107 Z0.000000 I73.073894 J-5.875047
G03 X-12.856232 Y-75.526483 Z0.000000 I55.752765 J-0.008079
G03 X-12.255029 Y-80.602233 Z0.000000 I97.385782 J8.961490
G03 X-11.780979 Y-82.940214 Z0.000000 I21.083714 J3.057896
G03 X-9.057221 Y-89.491013 Z0.000000 I24.949741 J6.532202
G03 X-0.625945 Y-101.890878 Z0.000000 I99.288147 J58.444524
G03 X5.082850 Y-108.863416 Z0.000000 I149.247699 J116.373873
G03 X10.902497 Y-115.306594 Z0.000000 I133.246228 J114.501669
G01 X11.955341 Y-116.415866 Z0.000000
G01 X12.698883 Y-109.821699 Z0.000000
G02 X13.467874 Y-103.240234 Z0.000000 I816.635719 J-92.081561
G02 X13.503273 Y-103.170055 Z0.000000 I0.114781 J-0.013881
G02 X13.575406 Y-103.142690 Z0.000000 I0.068936 J-0.072959
G02 X21.317814 Y-103.419061 Z0.000000 I-32.230014 J-1011.497309
G03 X29.071603 Y-103.721973 Z0.000000 I332.289388 J8406.399913
G03 X29.309361 Y-103.727556 Z0.000000 I0.303700 J7.866971
G03 X29.356703 Y-103.656461 Z0.000000 I0.000386 J0.051053
G03 X29.166654 Y-103.393107 Z0.000000 I-0.679225 J-0.289911
G02 X28.787687 Y-103.054887 Z0.000000 I36.100750 J40.831358
G02 X26.125284 Y-100.653149 Z0.000000 I1801.131095 J1999.287734
G01 X26.125650 Y-100.653149 Z0.000000
M300S00

(End cutting path id: path7790-2)


(Start cutting path id: path7790)
(Change tool to Default tool)

M300S00
G00 X26.125650 Y42.963939

M300S25
G02 X12.031099 Y56.320148 Z0.000000 I272.619748 J301.805362 F2000.00000
G02 X5.994078 Y62.974431 Z0.000000 I61.385486 J61.756918
G02 X1.042770 Y71.220116 Z0.000000 I25.873350 J21.145640
G02 X-2.126638 Y82.378992 Z0.000000 I44.839634 J18.765148
G02 X-2.477143 Y85.388214 Z0.000000 I36.350578 J5.759030
G02 X-2.361291 Y85.510969 Z0.000000 I0.113917 J0.008535
G02 X-2.229857 Y85.495896 Z0.000000 I-0.010521 J-0.672341
G02 X2.525583 Y84.455676 Z0.000000 I-194.625058 J-901.132183
G03 X7.273051 Y83.425401 Z0.000000 I122.518871 J553.108758
G01 X7.315628 Y83.437646 Z0.000000
G01 X7.323056 Y83.477844 Z0.000000
G03 X4.535812 Y89.415071 Z0.000000 I-822.625496 J-382.560518
G02 X1.748417 Y95.363905 Z0.000000 I683.002759 J323.656225
G02 X1.719868 Y95.493433 Z0.000000 I0.279619 J0.129540
G02 X1.757099 Y95.618034 Z0.000000 I0.227117 J-0.000000
G02 X5.483195 Y101.228598 Z0.000000 I509.399795 J-334.260724
G03 X9.219286 Y106.824944 Z0.000000 I-894.315648 J601.085635
G01 X9.215746 Y106.857624 Z0.000000
G01 X9.179091 Y106.870641 Z0.000000
G03 X2.812361 Y106.296171 Z0.000000 I110.287059 J-1257.856421
G02 X-3.560747 Y105.715370 Z0.000000 I-180.914158 J1949.907586
G02 X-3.798100 Y105.704629 Z0.000000 I-0.240601 J2.688700
G02 X-3.985131 Y105.800287 Z0.000000 I-0.000236 J0.230208
G02 X-7.782004 Y111.235529 Z0.000000 I186.017575 J133.989300
G03 X-11.539126 Y116.755013 Z0.000000 I-1174.686911 J-795.572697
G03 X-11.592621 Y116.805368 Z0.000000 I-0.141702 J-0.096946
G01 X-11.637728 Y116.789543 Z0.000000
G03 X-13.926204 Y110.539641 Z0.000000 I564.716388 J-210.321521
G02 X-16.228190 Y104.268368 Z0.000000 I-497.183719 J178.942328
G02 X-16.299519 Y104.198262 Z0.000000 I-0.110916 J0.041511
G02 X-16.405136 Y104.165531 Z0.000000 I-0.464403 J1.311774
G02 X-22.946332 Y102.424606 Z0.000000 I-1324.753748 J4964.351511
G03 X-29.440572 Y100.662877 Z0.000000 I158.677536 J-597.781611
G01 X-29.463248 Y100.618605 Z0.000000
G03 X-29.420831 Y100.561905 Z0.000000 I0.116902 J0.043239
G03 X-24.347789 Y96.806057 Z0.000000 I591.231799 J793.275597
G02 X-19.307441 Y93.032266 Z0.000000 I-217.622183 J-295.913247
G02 X-19.231085 Y92.906224 Z0.000000 I-0.121984 J-0.160047
G02 X-19.226715 Y92.749048 Z0.000000 I-0.549114 J-0.093917
G02 X-20.015964 Y86.039315 Z0.000000 I-1019.329482 J116.499906
G03 X-20.820292 Y79.328580 Z0.000000 I3057.827445 J-369.905344
G03 X-20.827701 Y79.203355 Z0.000000 I1.054575 J-0.125225
G01 X-20.773897 Y79.171737 Z0.000000
G03 X-16.766016 Y81.465802 Z0.000000 I-96.430716 J173.118768
G02 X-12.692162 Y83.809232 Z0.000000 I125.251814 J-213.026925
G02 X-12.521594 Y83.853923 Z0.000000 I0.170568 J-0.303152
G02 X-12.422830 Y83.781598 Z0.000000 I-0.000000 J-0.103597
G02 X-12.397543 Y83.462144 Z0.000000 I-0.676797 J-0.214300
G03 X-12.585194 Y81.980634 Z0.000000 I32.572361 J-4.878329
G03 X-12.853943 Y79.060402 Z0.000000 I126.306749 J-13.096488
G03 X-13.089735 Y73.195973 Z0.000000 I73.074063 J-5.875052
G03 X-12.856232 Y68.090600 Z0.000000 I55.752738 J-0.008079
G03 X-12.255029 Y63.014851 Z0.000000 I97.386068 J8.961525
G03 X-11.780979 Y60.676869 Z0.000000 I21.083710 J3.057893
G03 X-9.057221 Y54.126075 Z0.000000 I24.949723 J6.532202
G03 X-0.625945 Y41.726209 Z0.000000 I99.288383 J58.444683
G03 X5.082850 Y34.753672 Z0.000000 I149.249550 J116.375401
G03 X10.902497 Y28.310495 Z0.000000 I133.244352 J114.499997
G01 X11.955341 Y27.201222 Z0.000000
G01 X12.698883 Y33.795389 Z0.000000
G02 X13.467873 Y40.376852 Z0.000000 I816.641095 J-92.082225
G02 X13.503273 Y40.447033 Z0.000000 I0.114788 J-0.013881
G02 X13.575405 Y40.474397 Z0.000000 I0.068935 J-0.072961
G02 X21.317814 Y40.198026 Z0.000000 I-32.229112 J-1011.472798
G03 X29.071603 Y39.895117 Z0.000000 I332.128215 J8402.332796
G03 X29.309361 Y39.889531 Z0.000000 I0.303921 J7.872806
G03 X29.356712 Y39.960606 Z0.000000 I0.000405 J0.051040
G03 X29.166654 Y40.223979 Z0.000000 I-0.679159 J-0.289838
G02 X28.787688 Y40.562198 Z0.000000 I36.097457 J40.827697
G02 X26.125284 Y42.963939 Z0.000000 I1800.058021 J1998.096324
G01 X26.125650 Y42.963939 Z0.000000
M300S00

(End cutting path id: path7790)


(Footer)
M5
G00 X0.0000 Y0.0000
M2
(Using default footer. To add your own footer create file "footer" in the output dir.)
(end)
%